!!!OTL: ES GIENG EIN REITER SPAZIEREN
!!!ARE: Europa, Mitteleuropa, Deutschland, Westfalen
!!!SCT: E0065
!!!YEM: Copyright 1995, estate of Helmut Schaffrath.
**kern
*ICvox
*Ivox
*M6/8
*k[]
*a:
{8e
=1
8.a
16ee
8ee
8ee
8dd
8ffn
=2
4ee
8ccn
4b}
{8b
=3
8.dd
16ccn
8b
8ccn
8ee
8ccn
=4
[4.b
4b]}
{8b
=5
8.ccn
16b
8a
8.ccn
16b
8a
=6
4g#
8a
4b}
{8b
=7
8.ccn
16b
8a
8.ccn
16b
8a
=8
4g#
8a
4b}
{8g#
=9
4.a
4.ee
=10
4ccn
8b
4a}
==
!!!AGN: erzaehlendes Volks - Lied, Sage, Mord, Hinrichtung, Ballade ?
!!!ONB: ESAC (Essen Associative Code) Database: ERK1
!!!AMT: compound duple
!!!AIN: vox
!!!EED: Helmut Schaffrath
!!!EEV: 1.0
*-
